X:1
T:7 Mélodies, Op.2
T:Les Papillons
T:3. Les Papillons
T:Ernest Chausson
T:Théophile Gautier
T:7 Mélodies, Op.2
T:OpenScore (CC0)
T:OpenScore (CC0)
T:OpenScore (CC0)
T:OpenScore (CC0)
T:OpenScore (CC0)
C:Ernest Chausson
Z:Théophile Gautier
Z:OpenScore (CC0)
%%score 1 { 2 | 3 }
L:1/8
Q:1/4=110
M:2/4
K:G
V:1 treble nm="Chant\nVoice"
V:2 bass nm="Piano"
V:3 bass 
V:1
"^Vif" z4 | z4 | z!p! B BB | B2 (3BBB | d4 | A2 z2 | GG GG | c2 cc | B4- | B z z2 |!p! BB cd | d4 | %12
w: ||Les pa- pil-|\- lons cou- leur de|nei-|ge|vo- lent par es-|\- saims sur la|mer;|_|Beaux pa- pil- lons|blancs,|
 z2 cd | d2 F2 | e2 ee | dA A2- | %16
w: quand pour-|rai- je|pren- dre le|bleu che- min|
[Q:1/4=100]"^poco rit." A3[Q:1/4=80]"^T" G[Q:1/4=90]"^T"[Q:1/4=80]"^T" | %17
w: _ de|
[Q:1/4=110]"^a tempo" G2- G z | z4 | z2 BB | B2 z2 | z B (3BBB | d4 | A2 z2 | z A AA | A3 A | %26
w: l'air. _||Sa- vez–|vous|ô bel- le des|bel-|\- les|Ma ba- ya-|dère aux|
 A2 B2 | c2 z2 | z c cc | e3 A | A2 c2 | c4 | B2 z2 |!mf! B4- | B^C CC | %35
w: yeux de|jais,|S'ils me vou-|laient prê-|ter leurs|ai-|\- les,|di-|* tes, sa- vez-|
 B4[Q:1/4=100]"^rit."[Q:1/4=90]"^T"[Q:1/4=80]"^T" |[Q:1/4=70]"^T"!pp! C2[Q:1/4=60]"^rit." B2 | %37
w: vous,|où j'i-|
[Q:1/4=110]"^a tempo" B4 | z2 z G | G3 G | GG c>B | B4 | B z!<(! BB | d3 d!<)! |!<(! c2 cc!<)! | %45
w: rais?|Sans|prendre un|seul bai- ser aux|ro-|ses, à tra-|vers val-|lons et fo-|
!f! =f4- | f2 z =f |!>(! e2 ed | d c2 B | d4!>)! |!mp! c2[Q:1/4=100]"^ritard." z2[Q:1/4=90]"^T" | %51
w: rêts,|_ J'i-|rais à vos|lè- vres mi-|clo-|ses,|
[Q:1/4=80]"^T" z4[Q:1/4=70]"^T" |"^ad libitum" z B GD | D2 !fermata!D z | z D DD | %55
w: |Fleur de mon|â- me|et j'y mour-|
[Q:1/4=110]"^T" D4 | z4 | z4 | z4 | z4 | z4 | z4 | z4 | z4 |] %64
w: rais|||||||||
V:2
!pp!"^très-léger" [B,D]/[I:staff +1]G,/[I:staff -1][B,D]/[I:staff +1]E/[I:staff -1] [B,D]/[I:staff +1]G,/[I:staff -1][B,D]/[I:staff +1]E/ | %1
[I:staff -1] [B,D]/[I:staff +1]G,/[I:staff -1][B,D]/[I:staff +1]E/[I:staff -1] [B,D]/[I:staff +1]G,/[I:staff -1][B,D]/[I:staff +1]E/ | %2
[I:staff -1] [B,D]/[I:staff +1]G,/[I:staff -1][B,D]/[I:staff +1]E/[I:staff -1] [B,D]/[I:staff +1]G,/[I:staff -1][B,D]/[I:staff +1]E/ | %3
[I:staff -1] [B,D]/[I:staff +1]G,/[I:staff -1][B,D]/[I:staff +1]E/[I:staff -1] [B,D]/[I:staff +1]G,/[I:staff -1][B,D]/[I:staff +1]E/ | %4
[I:staff -1] [A,D]/[I:staff +1]F,/[I:staff -1][A,D]/[I:staff +1]E/[I:staff -1] [A,D]/[I:staff +1]F,/[I:staff -1][A,D]/[I:staff +1]E/ | %5
[I:staff -1] [A,D]/[I:staff +1]F,/[I:staff -1][A,D]/[I:staff +1]E/[I:staff -1] [A,D]/[I:staff +1]F,/[I:staff -1][A,D]/[I:staff +1]E/ | %6
[I:staff -1] [G,B,]/[I:staff +1]E,/[I:staff -1][G,B,]/[I:staff +1]C/[I:staff -1] [G,B,]/[I:staff +1]E,/[I:staff -1][G,B,]/[I:staff +1]C/ | %7
[I:staff -1] [G,C]/[I:staff +1]E,/[I:staff -1][G,C]/[I:staff +1]D/[I:staff -1] [G,C]/[I:staff +1]E,/[I:staff -1][G,C]/[I:staff +1]D/ | %8
[I:staff -1] [F,B,]/[I:staff +1]^D,/[I:staff -1][F,B,]/[I:staff +1]C/[I:staff -1] [F,A,B,]/[I:staff +1]B,,/[I:staff -1][F,A,B,]/[I:staff +1]C/ | %9
[I:staff -1] [^E,^G,B,]/[I:staff +1]^^C,/[I:staff -1][E,G,B,]/[I:staff +1]=C/[I:staff -1] [F,A,B,]/[I:staff +1]^D,/[I:staff -1][F,A,B,]/[I:staff +1]C/ | %10
!pp![I:staff -1] [G,B,]/[I:staff +1]F,/[I:staff -1][G,B,]/[I:staff +1]^G,/[I:staff -1] [A,C]/[I:staff +1]^G,/[I:staff -1][A,C]/[I:staff +1]^A,/ | %11
[I:staff -1] [B,CD]/[I:staff +1]=A,/[I:staff -1][^G,CD]/[I:staff +1]A,/[I:staff -1] [=G,CD]/[I:staff +1]F,/[I:staff -1][E,CD]/[I:staff +1]D,/ | %12
[I:staff -1] [G,B,]/[I:staff +1]F,/[I:staff -1][G,B,]/[I:staff +1]^G,/[I:staff -1] [A,C]/[I:staff +1]G,/[I:staff -1][A,C]/[I:staff +1]^A,/ | %13
[I:staff -1] [B,CD]/[I:staff +1]=A,/[I:staff -1][^G,CD]/[I:staff +1]A,/[I:staff -1] [=G,CD]/[I:staff +1]F,/[I:staff -1][E,CD]/[I:staff +1]D,/ | %14
[I:staff -1] [F,CE]/[I:staff +1]D,/[I:staff -1][F,CE]/[I:staff +1]D/[I:staff -1] [F,CE]/[I:staff +1]D,/[I:staff -1][F,CE]/[I:staff +1]D/ | %15
[I:staff -1] [F,CD]/[I:staff +1]D,/[I:staff -1][F,CD]/[I:staff +1]E/[I:staff -1] [F,CD]/[I:staff +1]D,/[I:staff -1][F,CD]/[I:staff +1]E/ | %16
[I:staff -1] [F,CD]/[I:staff +1]D,/[I:staff -1][F,CD]/[I:staff +1]E/[I:staff -1] [F,CD]/[I:staff +1]D,/[I:staff -1][F,CD]/[I:staff +1]E/ | %17
[I:staff -1] [G,B,D]/[I:staff +1]G,/[I:staff -1][B,D]/[I:staff +1]E/[I:staff -1] [B,D]/[I:staff +1]G,/[I:staff -1][B,D]/[I:staff +1]E/ | %18
[I:staff -1] [B,D]/[I:staff +1]G,/[I:staff -1][B,D]/[I:staff +1]E/[I:staff -1] [B,D]/[I:staff +1]G,/[I:staff -1][B,D]/[I:staff +1]E/ | %19
[I:staff -1] [B,D]/[I:staff +1]G,/[I:staff -1][B,D]/[I:staff +1]E/[I:staff -1] [B,D]/[I:staff +1]G,/[I:staff -1][B,D]/[I:staff +1]E/ | %20
[I:staff -1] [B,D]/[I:staff +1]G,/[I:staff -1][B,D]/[I:staff +1]E/[I:staff -1] [B,D]/[I:staff +1]G,/[I:staff -1][B,D]/[I:staff +1]E/ | %21
[I:staff -1] [B,D]/[I:staff +1]G,/[I:staff -1][B,D]/[I:staff +1]E/[I:staff -1] [B,D]/[I:staff +1]G,/[I:staff -1][B,D]/[I:staff +1]E/ | %22
[I:staff -1] [_B,D]/[I:staff +1]G,/[I:staff -1][B,D]/[I:staff +1]E/[I:staff -1] [B,D]/[I:staff +1]G,/[I:staff -1][B,D]/[I:staff +1]E/ | %23
[I:staff -1] [A,D]/[I:staff +1]F,/[I:staff -1][A,D]/[I:staff +1]E/[I:staff -1] [A,D]/[I:staff +1]F,/[I:staff -1][A,D]/[I:staff +1]E/ | %24
[I:staff -1] [A,D]/[I:staff +1]=F,/[I:staff -1][A,D]/[I:staff +1]E/[I:staff -1] [A,D]/[I:staff +1]F,/[I:staff -1][A,D]/[I:staff +1]E/ | %25
[I:staff -1] [A,D]/[I:staff +1]=F,/[I:staff -1][A,D]/[I:staff +1]E/[I:staff -1] [A,D]/[I:staff +1]F,/[I:staff -1][A,D]/[I:staff +1]E/ | %26
[I:staff -1] [A,D]/[I:staff +1]=F,/[I:staff -1][A,D]/[I:staff +1]E/[I:staff -1] [^G,DE]/[I:staff +1]E,/[I:staff -1][G,DE]/[I:staff +1]=F/ | %27
[I:staff -1] [A,CE]/[I:staff +1]A,,/[I:staff -1][CE]/[I:staff +1]=F/[I:staff -1] [CE]/[I:staff +1]A,/[I:staff -1][CE]/[I:staff +1]F/ | %28
[I:staff -1] [CE]/[I:staff +1]A,/[I:staff -1][CE]/[I:staff +1]=F/[I:staff -1] [CE]/[I:staff +1]A,/[I:staff -1][CE]/[I:staff +1]F/ | %29
[I:staff -1] [F,CE]/[I:staff +1]D,/[I:staff -1][F,CE]/[I:staff +1]^F/[I:staff -1] [F,CE]/[I:staff +1]D,/[I:staff -1][F,CE]/[I:staff +1]F/ | %30
[I:staff -1] [F,CE]/[I:staff +1]D,/[I:staff -1][F,CE]/[I:staff +1]F/[I:staff -1] [F,CE]/[I:staff +1]D,/[I:staff -1][F,CE]/[I:staff +1]F/ | %31
[I:staff -1] [F,CD]/[I:staff +1]D,/[I:staff -1][F,CD]/[I:staff +1]E/[I:staff -1] [F,CD]/[I:staff +1]D,/[I:staff -1][F,CD]/[I:staff +1]E/ | %32
[I:staff -1] [G,B,D]/[I:staff +1]F,/[I:staff -1][G,B,]/[I:staff +1]^A,/[I:staff -1] [B,D]/[I:staff +1]^C/[I:staff -1][DG]/[I:staff +1]F/ | %33
[I:staff -1][K:treble] [^CGB]/[I:staff +1]=A,/[I:staff -1][CGB]/[I:staff +1]A/[I:staff -1] [CGB]/[I:staff +1]A,/[I:staff -1][CGB]/[I:staff +1]A/ | %34
[I:staff -1] [^CGB]/[I:staff +1]A,/[I:staff -1][CGB]/[I:staff +1]A/[I:staff -1] [CGB]/[I:staff +1]A,/[I:staff -1][CGB]/[I:staff +1]A/ | %35
[I:staff -1] [=CFB]/[I:staff +1]D/"^rit."[I:staff -1][CFB]/[I:staff +1]A/[I:staff -1] [CFB]/[I:staff +1]D/[I:staff -1][CFB]/[I:staff +1]A/ | %36
[I:staff -1] [CFB]/[I:staff +1]D/[I:staff -1][CFB]/[I:staff +1]A/"^rit."[I:staff -1] [CFB]/[I:staff +1]D/[I:staff -1][CFB]/[I:staff +1]A/ | %37
"^a tempo"[I:staff -1] [B,GB]/[I:staff +1][G,D]/[I:staff -1][B,GB]/[I:staff +1]E/[I:staff -1] [B,GB]/[I:staff +1][G,D]/[I:staff -1][B,GB]/[I:staff +1]E/ | %38
[I:staff -1] [B,GB]/[I:staff +1][G,D]/[I:staff -1][B,GB]/[I:staff +1]E/[I:staff -1] [B,GB]/[I:staff +1][G,D]/[I:staff -1][B,GB]/[I:staff +1]E/ | %39
[I:staff -1] [B,GB]/[I:staff +1][G,^D]/[I:staff -1][B,GB]/[I:staff +1]E/[I:staff -1] [B,GB]/[I:staff +1][G,D]/[I:staff -1][B,GB]/[I:staff +1]E/ | %40
[I:staff -1] [B,GB]/[I:staff +1][G,^D]/[I:staff -1][B,GB]/[I:staff +1]E/[I:staff -1] [CFc]/[I:staff +1][G,D]/[I:staff -1][B,GB]/[I:staff +1]E/ | %41
[I:staff -1] [B,=FB]/[I:staff +1][G,=D]/[I:staff -1][B,FB]/[I:staff +1]E/[I:staff -1] [B,FB]/[I:staff +1][G,D]/[I:staff -1][B,FB]/[I:staff +1]E/ | %42
[I:staff -1] [B,=FB]/[I:staff +1][G,D]/[I:staff -1][B,FB]/[I:staff +1]E/[I:staff -1] [B,FB]/[I:staff +1][G,D]/[I:staff -1][B,FB]/[I:staff +1]E/ | %43
[I:staff -1] [=FGd]/[I:staff +1][G,B,]/[I:staff -1][FGd]/[I:staff +1]E/[I:staff -1] [FGd]/[I:staff +1][G,B,]/[I:staff -1][FGd]/[I:staff +1]E/ | %44
[I:staff -1] [=FGc]/[I:staff +1]A,/[I:staff -1][FGc]/[I:staff +1]=E/[I:staff -1] [FGc]/[I:staff +1]A,/[I:staff -1][FGc]/[I:staff +1]E/ | %45
[I:staff -1] [=FB=f]/[I:staff +1][G,D]/[I:staff -1][FBf]/[I:staff +1]G/[I:staff -1] [FBf]/[I:staff +1][G,D]/[I:staff -1][FBf]/[I:staff +1]G/ | %46
[I:staff -1] [=FB=f]/[I:staff +1][G,D]/[I:staff -1][FBf]/[I:staff +1]G/[I:staff -1] [FBf]/[I:staff +1][G,D]/[I:staff -1][FBf]/[I:staff +1]G/ | %47
[I:staff -1] [EBe]/[I:staff +1][^G,D]/[I:staff -1][EBe]/[I:staff +1]=F/[I:staff -1] [EBe]/[I:staff +1][G,D]/[I:staff -1][EBd]/[I:staff +1]F/ | %48
[I:staff -1] [EBd]/[I:staff +1][^G,D]/[I:staff -1][Ec]/[I:staff +1]=F/[I:staff -1] [DEc]/[I:staff +1][G,D]/[I:staff -1][DEB]/[I:staff +1]F/ | %49
[I:staff -1] [D^Gd]/[I:staff +1][A,E]/[I:staff -1][DGd]/[I:staff +1]=F/[I:staff -1] [DGd]/[I:staff +1][A,E]/[I:staff -1][DGd]/[I:staff +1]F/ | %50
[I:staff -1] [EAc]/[I:staff +1]A,/[I:staff -1][EAc]/[I:staff +1]d/"^ritard."[I:staff -1] [DE^GB]/[I:staff +1]B,/[I:staff -1][DEGB]/[I:staff +1]c/ | %51
[I:staff -1] [EA]/[I:staff +1]C/[I:staff -1][EA]/[I:staff +1]B/[I:staff -1] [E=G]/[I:staff +1]^C/[I:staff -1][EG]/[I:staff +1]^A/ | %52
[I:staff -1] [DGB]4- | [DGB]2- !fermata![DGB] z |!p! [^A,D]4 | %55
!pp!"^a tempo" [B,D]/[I:staff +1][G,,D,G,]/[I:staff -1][B,D]/[I:staff +1]E/[I:staff -1] [B,D]/[I:staff +1]G,/[I:staff -1][B,D]/[I:staff +1]E/ | %56
[I:staff -1] [DG]/[I:staff +1]B,/[I:staff -1][DG]/[I:staff +1]A/"_dim."[I:staff -1] [DG]/[I:staff +1]B,/[I:staff -1][DG]/[I:staff +1]A/ | %57
[I:staff -1] [GB]/[I:staff +1]D/[I:staff -1][GB]/[I:staff +1]c/[I:staff -1] [GB]/[I:staff +1]D/[I:staff -1][GB]/[I:staff +1]c/ | %58
[I:staff -1] [Bd]/[I:staff +1]G/[I:staff -1][Bd]/[I:staff +1]e/[I:staff -1] [Bd]/[I:staff +1]G/[I:staff -1][Bd]/[I:staff +1]e/ | %59
[I:staff -1] [dg]/[I:staff +1]B/[I:staff -1][dg]/[I:staff +1]a/[I:staff -1] [dg]/[I:staff +1]B/[I:staff -1][dg]/[I:staff +1]a/ | %60
[I:staff -1] [gb]/[I:staff +1]d/[I:staff -1][gb]/[I:staff +1]c'/[I:staff -1] [gb]/[I:staff +1]d/[I:staff -1][gb]/[I:staff +1]c'/ | %61
[I:staff -1] [bd']/[I:staff +1]g/[I:staff -1][bd']/[I:staff +1]e'/[I:staff -1] [bd']/[I:staff +1]g/[I:staff -1][bd']/[I:staff +1]f'/ | %62
!ppp![I:staff -1] [d'g'] z z2 | [B,G]2 z2 |] %64
V:3
!ped! x2 x2 | x2 x2 | x2 x2 | x2 x x/ x/!ped-up! |!ped! x4 | x2 x x/ x/!ped-up! | x4 | x4 | %8
!<(! x4 | x4!<)! | x4 | x4 | x4 | x4 | x4 | x4 |"^poco rit." x4 |!pp!"^a tempo" x4 | x4 | x4 | x4 | %21
 x4 | x4 | x4 | x4 | x4 | x4 | x4 | x4 | x4 | x4 | x4 |!<(! x4!<)! |[K:treble]!mf! x4 | x4 | x4 | %36
!>(! x4!>)! |!pp! x4 | x4 | x4 | x4 |!<(! x4 | x4 | x4!<)! |!<(! x4!<)! |!mf! x4 | x4 | %47
!>(! x4!>)! |!>(! x4 | x4 | x!>)! x!mp! x2 | x4 | z4 | z4 |[K:bass] [D,F,]4 | x4 |[K:treble] x4 | %57
 x4 | x4 | x4 | x4 | x4 | z4 |[K:bass] [G,,D,]2 z2 |] %64

